public/assets/images/why-choose/01.svg

<svg width="46" height="46" viewBox="0 0 46 46" fill="none" xmlns="http://www.w3.org/2000/svg">
<g clip-path="url(#clip0_118_6664)">
<path d="M45.3262 36.0466C45.6984 36.0466 46 35.7449 46 35.3727V34.3401C46 32.4773 44.8114 30.834 43.0418 30.2509L38.8302 28.8652V27.407C40.2967 26.5272 41.2806 24.9219 41.2806 23.0908V20.1866C41.2806 17.413 39.0241 15.1565 36.2504 15.1565C34.6167 15.1565 33.1629 15.9399 32.2435 17.1502C31.7345 16.1951 30.8714 15.4502 29.7908 15.0953L25.5797 13.7088V12.2506C27.0462 11.3708 28.0301 9.76557 28.0301 7.93446V5.03017C28.0302 2.25652 25.7737 0 23 0C20.2263 0 17.9698 2.25652 17.9698 5.03017V7.93437C17.9698 9.76548 18.9537 11.3707 20.4202 12.2506V13.7087L16.2095 15.0951C15.1287 15.4502 14.2655 16.1951 13.7565 17.1502C12.8371 15.9398 11.3833 15.1565 9.74957 15.1565C6.97592 15.1565 4.7194 17.413 4.7194 20.1866V23.0908C4.7194 24.9219 5.70328 26.5272 7.1698 27.407V28.8652L2.95784 30.251C1.18863 30.834 0 32.4773 0 34.3401V35.3727C0 35.7449 0.301605 36.0466 0.673828 36.0466C1.04605 36.0466 1.34766 35.7449 1.34766 35.3727V34.3401C1.34766 33.0603 2.16425 31.9315 3.37929 31.531L7.32442 30.2329C7.68497 31.2234 8.63587 31.9326 9.74948 31.9326C10.863 31.9326 11.8139 31.2233 12.1745 30.2329L16.119 31.5308C16.9837 31.8158 17.6537 32.4722 17.9635 33.3041L16.2091 33.8815C14.4394 34.4639 13.2504 36.1069 13.2504 37.9699V38.753H5.15946V37.0671C5.15946 36.695 4.85785 36.3933 4.48563 36.3933C4.11341 36.3933 3.8118 36.695 3.8118 37.0671V38.753H1.34766V38.5203C1.34766 38.1482 1.04605 37.8465 0.673828 37.8465C0.301605 37.8465 0 38.1482 0 38.5203V39.4268C0 39.799 0.301605 40.1007 0.673828 40.1007H13.2504V45.326C13.2504 45.6981 13.552 45.9998 13.9243 45.9998H32.0757C32.4479 45.9998 32.7495 45.6981 32.7495 45.326V44.4259C32.7495 44.0538 32.4479 43.7521 32.0757 43.7521C31.7034 43.7521 31.4018 44.0538 31.4018 44.4259V44.6523H28.9378V40.6976C28.9378 40.3255 28.6362 40.0238 28.2639 40.0238C27.8917 40.0238 27.5901 40.3255 27.5901 40.6976V44.6523H18.4099V40.6976C18.4099 40.3255 18.1083 40.0238 17.7361 40.0238C17.3638 40.0238 17.0622 40.3255 17.0622 40.6976V44.6523H14.5981V37.97C14.5981 36.6904 15.4148 35.5618 16.6303 35.1618L20.575 33.8635C20.9357 34.8539 21.8865 35.5631 23 35.5631C24.1135 35.5631 25.0643 34.854 25.425 33.8635L29.3697 35.1618C30.5852 35.5619 31.4019 36.6904 31.4019 37.97V41.2801C31.4019 41.6522 31.7035 41.9539 32.0757 41.9539C32.448 41.9539 32.7496 41.6522 32.7496 41.2801V40.1009H45.3262C45.6984 40.1009 46 39.7992 46 39.427V38.5205C46 38.1484 45.6984 37.8467 45.3262 37.8467C44.9539 37.8467 44.6523 38.1484 44.6523 38.5205V38.7532H42.1882V37.0673C42.1882 36.6952 41.8866 36.3935 41.5144 36.3935C41.1421 36.3935 40.8405 36.6952 40.8405 37.0673V38.7532H32.7495V37.97C32.7495 36.107 31.5605 34.4641 29.7908 33.8817L28.0364 33.3043C28.3462 32.4725 29.0161 31.8161 29.8805 31.5311L33.8255 30.233C34.186 31.2235 35.1369 31.9328 36.2504 31.9328C37.364 31.9328 38.3149 31.2235 38.6755 30.233L42.6203 31.5311C43.8358 31.9315 44.6523 33.0603 44.6523 34.3401V35.3727C44.6523 35.7449 44.9539 36.0466 45.3262 36.0466ZM36.2504 16.504C38.281 16.504 39.9329 18.156 39.9329 20.1865V23.0907C39.9329 25.1213 38.2809 26.7733 36.2504 26.7733C34.22 26.7733 32.568 25.1213 32.568 23.0907V20.1865C32.568 18.156 34.22 16.504 36.2504 16.504ZM19.3175 7.93437V5.03017C19.3175 2.99961 20.9694 1.34766 23 1.34766C25.0306 1.34766 26.6825 2.99961 26.6825 5.03017V7.93437C26.6825 9.96493 25.0305 11.6169 23 11.6169C20.9695 11.6169 19.3175 9.96493 19.3175 7.93437ZM23 12.9645C23.425 12.9645 23.8376 12.9111 24.2321 12.8114V14.1785C24.2319 14.1849 24.232 14.1912 24.2321 14.1975C24.2316 14.8764 23.6791 15.4286 23.0001 15.4286C22.3211 15.4286 21.7685 14.8764 21.7681 14.1975C21.7681 14.1911 21.7682 14.1848 21.7681 14.1785V12.8114C22.1624 12.911 22.575 12.9645 23 12.9645ZM16.6305 16.3753L20.5749 15.0766C20.9355 16.067 21.8864 16.7763 22.9999 16.7763C24.1134 16.7763 25.0643 16.067 25.4249 15.0766L29.3697 16.3754C30.4961 16.7453 31.2772 17.7317 31.3864 18.9044C31.2783 19.3139 31.2202 19.7435 31.2202 20.1865V23.0907C31.2202 23.2614 31.2289 23.4302 31.2456 23.5966H28.0244C27.9087 20.9248 25.6996 18.7866 22.9998 18.7866C20.3 18.7866 18.0909 20.9248 17.9752 23.5966H14.7541C14.7708 23.4302 14.7795 23.2614 14.7795 23.0907V20.1865C14.7795 19.7435 14.7213 19.314 14.6133 18.9044C14.7226 17.7318 15.5038 16.7454 16.6305 16.3753ZM23 30.4035C20.9694 30.4035 19.3175 28.7515 19.3175 26.721V23.8168C19.3175 21.7862 20.9695 20.1343 23 20.1343C25.0305 20.1343 26.6825 21.7862 26.6825 23.8168V26.721C26.6825 28.7515 25.0306 30.4035 23 30.4035ZM6.06697 23.0907V20.1865C6.06697 18.156 7.71902 16.504 9.74948 16.504C11.78 16.504 13.4319 18.156 13.4319 20.1865V23.0907C13.4319 25.1213 11.78 26.7733 9.74948 26.7733C7.71902 26.7733 6.06697 25.1213 6.06697 23.0907ZM10.9815 29.3529C10.9815 30.0323 10.4289 30.585 9.74948 30.585C9.07009 30.585 8.51737 30.0322 8.51737 29.3529V27.9677C8.91178 28.0675 9.32443 28.1209 9.74948 28.1209C10.1744 28.1209 10.5871 28.0675 10.9815 27.9677V29.3529ZM16.5406 30.2509L12.3293 28.8652V27.4069C13.2716 26.8415 14.0136 25.9763 14.4243 24.9442H17.9698V26.721C17.9698 28.5521 18.9537 30.1573 20.4202 31.0371V32.4956L19.2434 32.8829C18.8007 31.6482 17.8168 30.6716 16.5406 30.2509ZM23 34.2154C22.3206 34.2154 21.7679 33.6627 21.7679 32.9833V32.9751C21.7679 32.9737 21.7679 32.9724 21.7679 32.9711V31.598C22.1623 31.6978 22.5749 31.7512 23 31.7512C23.4251 31.7512 23.8376 31.6978 24.2321 31.598V32.9711V32.9751V32.9833C24.2321 33.6627 23.6794 34.2154 23 34.2154ZM29.4591 30.251C28.1832 30.6716 27.1993 31.6482 26.7567 32.883L25.5798 32.4957V31.0372C27.0463 30.1574 28.0302 28.5522 28.0302 26.7211V24.9442H31.5757C31.9864 25.9763 32.7284 26.8416 33.6707 27.4069V28.8652L29.4591 30.251ZM36.2504 30.5851C35.571 30.5851 35.0184 30.0323 35.0184 29.353V27.9678C35.4128 28.0675 35.8255 28.121 36.2504 28.121C36.6754 28.121 37.088 28.0675 37.4825 27.9678V29.353C37.4825 30.0323 36.9298 30.5851 36.2504 30.5851Z" fill="#0F62FE"/>
</g>
<defs>
<clipPath id="clip0_118_6664">
<rect width="46" height="46" fill="white"/>
</clipPath>
</defs>
</svg>

<svg xmlns="http://www.w3.org/2000/svg" width="46" height="46" fill="none" viewBox="0 0 46 46"><g clip-path="url(#a)"><path fill="#0f62fe" d="M45.326 36.047a.674.674 0 0 0 .674-.674V34.34a4.3 4.3 0 0 0-2.958-4.09l-4.212-1.385v-1.458a5.03 5.03 0 0 0 2.45-4.316v-2.904a5.036 5.036 0 0 0-5.03-5.03 5.03 5.03 0 0 0-4.007 1.993 4.28 4.28 0 0 0-2.452-2.055L25.58 13.71v-1.46a5.03 5.03 0 0 0 2.45-4.317V5.03A5.036 5.036 0 0 0 23 0a5.036 5.036 0 0 0-5.03 5.03v2.904c0 1.831.984 3.437 2.45 4.317v1.458l-4.21 1.386a4.28 4.28 0 0 0-2.453 2.055 5.02 5.02 0 0 0-4.007-1.993 5.036 5.036 0 0 0-5.03 5.03v2.904c0 1.83.983 3.436 2.45 4.316v1.458l-4.212 1.386A4.3 4.3 0 0 0 0 34.341v1.032a.674.674 0 1 0 1.348 0V34.34c0-1.28.816-2.409 2.031-2.809l3.945-1.298c.361.99 1.312 1.7 2.425 1.7 1.114 0 2.065-.71 2.425-1.7l3.945 1.298a2.95 2.95 0 0 1 1.845 1.773l-1.755.578a4.3 4.3 0 0 0-2.959 4.088v.783H5.16v-1.686a.674.674 0 1 0-1.348 0v1.686H1.348v-.233a.674.674 0 1 0-1.348 0v.907c0 .372.302.674.674.674H13.25v5.225c0 .372.302.674.674.674h18.152a.674.674 0 0 0 .673-.674v-.9a.674.674 0 1 0-1.347 0v.226h-2.464v-3.954a.674.674 0 1 0-1.348 0v3.954h-9.18v-3.954a.674.674 0 1 0-1.348 0v3.954h-2.464V37.97a2.95 2.95 0 0 1 2.032-2.808l3.945-1.298c.36.99 1.312 1.7 2.425 1.7s2.064-.71 2.425-1.7l3.945 1.298a2.95 2.95 0 0 1 2.032 2.808v3.31a.674.674 0 1 0 1.348 0V40.1h12.576a.674.674 0 0 0 .674-.673v-.907a.674.674 0 1 0-1.348 0v.233h-2.464v-1.686a.674.674 0 1 0-1.348 0v1.686h-8.09v-.783a4.3 4.3 0 0 0-2.96-4.088l-1.754-.578c.31-.832.98-1.488 1.845-1.773l3.944-1.298c.361.99 1.312 1.7 2.425 1.7 1.114 0 2.065-.71 2.425-1.7l3.945 1.298a2.95 2.95 0 0 1 2.032 2.81v1.032c0 .372.302.674.674.674M36.25 16.504a3.687 3.687 0 0 1 3.683 3.682v2.905a3.687 3.687 0 0 1-3.683 3.682 3.687 3.687 0 0 1-3.682-3.682v-2.905a3.687 3.687 0 0 1 3.682-3.682m-16.932-8.57V5.03A3.687 3.687 0 0 1 23 1.348a3.687 3.687 0 0 1 3.683 3.682v2.904A3.687 3.687 0 0 1 23 11.617a3.687 3.687 0 0 1-3.683-3.683M23 12.964q.64-.002 1.232-.153v1.387c0 .678-.553 1.23-1.232 1.23a1.233 1.233 0 0 1-1.232-1.23V12.81q.593.152 1.232.153m-6.37 3.411 3.945-1.298c.36.99 1.311 1.7 2.425 1.7s2.064-.71 2.425-1.7l3.945 1.298a2.93 2.93 0 0 1 2.016 2.53q-.164.615-.166 1.281v2.905q0 .256.026.506h-3.222A5.036 5.036 0 0 0 23 18.787a5.036 5.036 0 0 0-5.025 4.81h-3.22q.024-.25.024-.506v-2.905c0-.442-.058-.872-.166-1.282a2.94 2.94 0 0 1 2.018-2.529M23 30.404a3.687 3.687 0 0 1-3.683-3.683v-2.904A3.687 3.687 0 0 1 23 20.134a3.687 3.687 0 0 1 3.683 3.683v2.904A3.687 3.687 0 0 1 23 30.404M6.067 23.09v-2.905a3.687 3.687 0 0 1 3.682-3.682 3.687 3.687 0 0 1 3.683 3.682v2.905a3.687 3.687 0 0 1-3.683 3.682 3.687 3.687 0 0 1-3.682-3.682m4.915 6.262a1.234 1.234 0 0 1-2.464 0v-1.385a5 5 0 0 0 2.464 0zm5.559.898-4.212-1.386v-1.458a5.06 5.06 0 0 0 2.095-2.463h3.546v1.777c0 1.831.984 3.436 2.45 4.316v1.459l-1.177.387a4.3 4.3 0 0 0-2.702-2.632M23 34.215c-.68 0-1.232-.552-1.232-1.232v-1.385a5 5 0 0 0 2.464 0v1.385c0 .68-.553 1.232-1.232 1.232m6.46-3.964a4.29 4.29 0 0 0-2.703 2.632l-1.177-.387v-1.459a5.03 5.03 0 0 0 2.45-4.316v-1.777h3.546a5.06 5.06 0 0 0 2.095 2.463v1.458zm6.79.334a1.234 1.234 0 0 1-1.232-1.232v-1.385a5 5 0 0 0 2.465 0v1.385c0 .68-.553 1.232-1.233 1.232"/></g><defs><clipPath id="a"><path fill="#fff" d="M0 0h46v46H0z"/></clipPath></defs></svg>
